static/icon/callback.svg

<svg xmlns="http://www.w3.org/2000/svg" width="24" height="24" fill="none"  xmlns:v="https://vecta.io/nano"><path d="M23.3467 17.6136l-3.3492-3.3493c-1.1962-1.1962-3.2297-.7176-3.7082.8373-.3588 1.0766-1.555 1.6747-2.6315 1.4354-2.3924-.5981-5.62202-3.7081-6.22011-6.22-.35885-1.07664.35885-2.27281 1.4354-2.63162 1.55501-.47847 2.03351-2.51195.83732-3.70812L6.36114.627989c-.95694-.837318-2.39234-.837318-3.22966 0L.858765 2.90071C-1.41396 5.29305 1.098 11.6327 6.71999 17.2547S18.6817 25.5083 21.074 23.116l2.2727-2.2728c.8374-.9569.8374-2.3923 0-3.2296z" fill="#362d5f"/></svg>

<svg width="24" height="24" viewBox="0 0 24 24" fill="none" xmlns="http://www.w3.org/2000/svg">
<path d="M23.3467 17.6136L19.9975 14.2643C18.8013 13.0681 16.7678 13.5467 16.2893 15.1016C15.9305 16.1782 14.7343 16.7763 13.6578 16.537C11.2654 15.9389 8.03578 12.8289 7.43769 10.317C7.07884 9.24036 7.79654 8.04419 8.87309 7.68538C10.4281 7.20691 10.9066 5.17343 9.71041 3.97726L6.36114 0.627989C5.4042 -0.209329 3.9688 -0.209329 3.13148 0.627989L0.858765 2.90071C-1.41396 5.29305 1.098 11.6327 6.71999 17.2547C12.342 22.8767 18.6817 25.5083 21.074 23.116L23.3467 20.8432C24.1841 19.8863 24.1841 18.4509 23.3467 17.6136Z" fill="#362D5F"/>
</svg>
